archdroid-icon-theme/Archdroid-Cyan/apps/scalable/system-shutdown.svg

<svg xmlns="http://www.w3.org/2000/svg" fill="#00BCD4" viewBox="0 0 48 48"><path d="m14 46h4v-4h-4v4m8 0h4v-4h-4v4m4-44h-4v20h4v-20m7.13 4.87l-2.89 2.89c3.45 2.11 5.76 5.9 5.76 10.24 0 6.63-5.37 12-12 12-6.63 0-12-5.37-12-12 0-4.34 2.31-8.13 5.76-10.24l-2.89-2.89c-4.15 2.89-6.87 7.69-6.87 13.13 0 8.84 7.16 16 16 16 8.84 0 16-7.16 16-16 0-5.44-2.72-10.24-6.87-13.13m-3.13 39.13h4v-4h-4v4z"/></svg>

<?xml version="1.0" encoding="UTF-8" standalone="no"?>
<svg
   xmlns:dc="http://purl.org/dc/elements/1.1/"
   xmlns:cc="http://creativecommons.org/ns#"
   xmlns:rdf="http://www.w3.org/1999/02/22-rdf-syntax-ns#"
   xmlns:svg="http://www.w3.org/2000/svg"
   xmlns="http://www.w3.org/2000/svg"
   xmlns:sodipodi="http://sodipodi.sourceforge.net/DTD/sodipodi-0.dtd"
   xmlns:inkscape="http://www.inkscape.org/namespaces/inkscape"
   fill="#00BCD4"
   width="48"
   height="48"
   viewBox="0 0 48 48"
   id="svg2"
   version="1.1"
   inkscape:version="0.91 r13725"
   sodipodi:docname="system-shutdown.svg">
  <metadata
     id="metadata10">
    <rdf:RDF>
      <cc:Work
         rdf:about="">
        <dc:format>image/svg+xml</dc:format>
        <dc:type
           rdf:resource="http://purl.org/dc/dcmitype/StillImage" />
      </cc:Work>
    </rdf:RDF>
  </metadata>
  <defs
     id="defs8" />
  <sodipodi:namedview
     pagecolor="#ffffff"
     bordercolor="#666666"
     borderopacity="1"
     objecttolerance="10"
     gridtolerance="10"
     guidetolerance="10"
     inkscape:pageopacity="0"
     inkscape:pageshadow="2"
     inkscape:window-width="640"
     inkscape:window-height="480"
     id="namedview6"
     showgrid="false"
     inkscape:zoom="6.549153645833334"
     inkscape:cx="23.99999999999999"
     inkscape:cy="24"
     inkscape:window-x="0"
     inkscape:window-y="30"
     inkscape:window-maximized="0"
     inkscape:current-layer="svg2" />
  <path
     d="m 14,46 4,0 0,-4 -4,0 0,4 z m 8,0 4,0 0,-4 -4,0 0,4 z m 4,-44 -4,0 0,20 4,0 0,-20 z m 7.13,4.870000000000001 -2.89,2.89 C 33.69,11.87 36,15.66 36,20 36,26.63 30.63,32 24,32 17.37,32 12,26.63 12,20 c 0,-4.34 2.31,-8.13 5.76,-10.24 L 14.87,6.87 C 10.72,9.759999999999999 8,14.56 8,20 8,28.84 15.16,36 24,36 32.84000000000001,36 40,28.84 40,20 40,14.56 37.28,9.759999999999999 33.13,6.87 Z M 30,46 l 4,0 0,-4 -4,0 0,4 z"
     id="path4"
     inkscape:connector-curvature="0" />
</svg>
